icons/.icons/Papirus/32x32/places/folder-violet-games.svg

<svg xmlns="http://www.w3.org/2000/svg" width="32" height="32" version="1">
 <rect style="opacity:0.2" width="28" height="18" x="2" y="11" rx="1.4" ry="1.4"/>
 <path style="fill:#5d399b" d="M 3.4,3 C 2.625,3 2,3.625 2,4.4 V 22.6 C 2,23.375 2.625,24 3.4,24 H 28.6 C 29.375,24 30,23.375 30,22.6 V 7.4 C 30,6.625 29.375,6 28.6,6 H 15 V 4.4 C 15,3.625 14.375,3 13.6,3 Z"/>
 <rect style="opacity:0.2" width="28" height="18" x="2" y="9" rx="1.4" ry="1.4"/>
 <rect style="fill:#e4e4e4" width="24" height="11" x="4" y="8" rx="1.4" ry="1.4"/>
 <rect style="fill:#7e57c2" width="28" height="18" x="2" y="10" rx="1.4" ry="1.4"/>
 <path style="opacity:0.1;fill:#ffffff" d="M 3.4,3 C 2.625,3 2,3.625 2,4.4 V 5.4 C 2,4.625 2.625,4 3.4,4 H 13.6 C 14.375,4 15,4.625 15,5.4 V 4.4 C 15,3.625 14.375,3 13.6,3 Z M 15,6 V 7 H 28.6 C 29.375,7 30,7.625 30,8.4 V 7.4 C 30,6.625 29.375,6 28.6,6 Z"/>
 <path style="fill:#2c1e44" d="m 18.646,15 c -0.15,10e-4 -0.286,0.052 -0.416,0.15 -0.33,0.252 -1.019,0.849 -2.231,0.85 -1.212,0.001 -1.898,-0.598 -2.228,-0.85 -0.13,-0.098 -0.255,-0.147 -0.407,-0.146 -0.151,0.001 -0.326,0.045 -0.504,0.146 -0.648,0.365 -1.242,1.562 -1.566,3.112 -0.276,1.316 -0.38,3.115 -0.215,3.84 0.144,0.622 0.391,0.898 0.832,0.898 1.413,0 1.475,-1.092 1.996,-2.139 0.377,-0.58 1.25,-0.842 2.092,-0.812 0.842,-0.032 1.717,0.232 2.094,0.812 0.521,1.047 0.583,2.139 1.996,2.139 0.441,0 0.688,-0.276 0.832,-0.898 0.165,-0.725 0.061,-2.524 -0.215,-3.84 C 20.382,16.712 19.788,15.515 19.14,15.15 18.962,15.049 18.797,14.999 18.646,15 Z m -5.645,1 h 1 v 1 h 1 v 1 h -1 v 1 h -1 v -1 h -1 v -1 h 1 z m 5.5,0 a 0.5,0.5 0 0 1 0.5,0.5 0.5,0.5 0 0 1 -0.5,0.5 0.5,0.5 0 0 1 -0.5,-0.5 0.5,0.5 0 0 1 0.5,-0.5 z m -1,1 a 0.5,0.5 0 0 1 0.5,0.5 0.5,0.5 0 0 1 -0.5,0.5 0.5,0.5 0 0 1 -0.5,-0.5 0.5,0.5 0 0 1 0.5,-0.5 z m 2,0 a 0.5,0.5 0 0 1 0.5,0.5 0.5,0.5 0 0 1 -0.5,0.5 0.5,0.5 0 0 1 -0.5,-0.5 0.5,0.5 0 0 1 0.5,-0.5 z m -1,1 a 0.5,0.5 0 0 1 0.5,0.5 0.5,0.5 0 0 1 -0.5,0.5 0.5,0.5 0 0 1 -0.5,-0.5 0.5,0.5 0 0 1 0.5,-0.5 z"/>
</svg>

<svg xmlns="http://www.w3.org/2000/svg" width="32" height="32" version="1">
 <rect style="opacity:0.2" width="25" height="16" x="3" y="12" rx="1.25" ry="1.25"/>
 <path style="fill:#5d399b" d="M 3,21.75 C 3,22.442 3.5575,23 4.25,23 H 26.75 C 27.442,23 28,22.442 28,21.75 V 8.25 C 28,7.5575 27.442,7 26.75,7 H 14 V 6.25 C 14,5.5575 13.443,5 12.75,5 H 4.25 C 3.5575,5 3,5.5575 3,6.25"/>
 <rect style="opacity:0.2" width="25" height="16" x="3" y="10" rx="1.25" ry="1.25"/>
 <rect style="fill:#e4e4e4" width="21" height="10" x="5" y="9" rx="1.25" ry="1.25"/>
 <rect style="fill:#7e57c2" width="25" height="16" x="3" y="11" rx="1.25" ry="1.25"/>
 <path style="opacity:0.1;fill:#ffffff" d="M 4.25 5 C 3.5575 5 3 5.5575 3 6.25 L 3 7.25 C 3 6.5575 3.5575 6 4.25 6 L 12.75 6 C 13.443 6 14 6.5575 14 7.25 L 14 8 L 26.75 8 C 27.442 8 28 8.5575 28 9.25 L 28 8.25 C 28 7.5575 27.442 7 26.75 7 L 14 7 L 14 6.25 C 14 5.5575 13.443 5 12.75 5 L 4.25 5 z"/>
 <path style="fill:#2c1e44" d="M 18.645 15 C 18.495 15.001 18.359 15.052 18.229 15.15 C 17.899 15.402 17.21 15.999 15.998 16 C 14.786 16.001 14.1 15.402 13.77 15.15 C 13.64 15.052 13.515 15.003 13.363 15.004 C 13.212 15.005 13.037 15.049 12.859 15.15 C 12.211 15.515 11.617 16.712 11.293 18.262 C 11.017 19.578 10.913 21.377 11.078 22.102 C 11.222 22.724 11.469 23 11.91 23 C 13.323 23 13.385 21.908 13.906 20.861 C 14.283 20.281 15.156 20.019 15.998 20.049 C 16.84 20.017 17.715 20.281 18.092 20.861 C 18.613 21.908 18.675 23 20.088 23 C 20.529 23 20.776 22.724 20.92 22.102 C 21.085 21.377 20.981 19.578 20.705 18.262 C 20.381 16.712 19.787 15.515 19.139 15.15 C 18.961 15.049 18.796 14.999 18.645 15 z M 13 16 L 14 16 L 14 17 L 15 17 L 15 18 L 14 18 L 14 19 L 13 19 L 13 18 L 12 18 L 12 17 L 13 17 L 13 16 z M 18.5 16 A 0.5 0.5 0 0 1 19 16.5 A 0.5 0.5 0 0 1 18.5 17 A 0.5 0.5 0 0 1 18 16.5 A 0.5 0.5 0 0 1 18.5 16 z M 17.5 17 A 0.5 0.5 0 0 1 18 17.5 A 0.5 0.5 0 0 1 17.5 18 A 0.5 0.5 0 0 1 17 17.5 A 0.5 0.5 0 0 1 17.5 17 z M 19.5 17 A 0.5 0.5 0 0 1 20 17.5 A 0.5 0.5 0 0 1 19.5 18 A 0.5 0.5 0 0 1 19 17.5 A 0.5 0.5 0 0 1 19.5 17 z M 18.5 18 A 0.5 0.5 0 0 1 19 18.5 A 0.5 0.5 0 0 1 18.5 19 A 0.5 0.5 0 0 1 18 18.5 A 0.5 0.5 0 0 1 18.5 18 z"/>
</svg>
